X:1
T: The Chorus Jig
P:O'Neill's version
R:Jig
Q:180
K:D
M:6/8
L:1/16
F2A2D2 D2E2F2|A2F2D2 F2E2D2|F2A2D2 D2F2G2|A4A2 B2G2E2|F2A2D2 D2E2F2|A2F2D2 F2E2D2|E4E2 dcA2F2|G6 G2F2E2|
F2A2D2 D2E2F2|A2F2D2 F2E2D2|F2A2D2 D2F2G2|A4A2 B2G2E2|F2A2D2 D2E2F2|A2F2D2 F2E2D2|E4E2 dcA2F2|G6 G2F2E2|
D4d2 d2c2d2|F4A2 A2F2A2|D4d2 d2c2d2|A4A2 B2G2E2|D4d2 d2c2d2|F4A2 A2F2A2|Bcd2B2 c2A2F2|G6 G2F2E2|
D4d2 d2c2d2|F4A2 A2F2A2|D4d2 d2c2d2|A2B2A2 A2B2c2|d2c2B2 c2B2A2|B2A2G2 A2G2F2|E4E2 dcA2F2|G6 G2F2E2|
F2E2D2 F2A2F2|G2B2G2 F2A2G2|F2E2D2 F2A2F2|A4A2 B2G2E2|F2E2D2 F2A2F2|G2B2G2 F2A2F2|E4E2 dcA2F2|G6 G2F2E2|
F2E2D2 F2A2F2|G2B2G2 F2A2G2|F2E2D2 F2A2F2|A6 A2B2c2|d2B2d2 c2A2c2|Bcd2B2 A2G2F2|E4E2 dcA2F2|G6 G2F2E2||
